.local/share/icons/Gruvbox-Plus-Dark/emotes/symbolic/face-worried-symbolic.svg

<svg width="16" height="16" version="1.1" xmlns="http://www.w3.org/2000/svg">
  <defs>
    <style type="text/css" id="current-color-scheme">.ColorScheme-Text { color:#ebdbb2; } .ColorScheme-Highlight { color:#458588; }</style>
  </defs>
  <path class="ColorScheme-Text" fill="currentColor" d="m8 1c-3.87 0-7 3.13-7 7 0 3.86 3.13 7 7 7s7-3.14 7-7c0-3.87-3.13-7-7-7zm-3 4c0.55 0 1 0.45 1 1s-0.45 1-1 1-1-0.45-1-1 0.45-1 1-1zm6 0c0.55 0 1 0.45 1 1s-0.45 1-1 1-1-0.45-1-1 0.45-1 1-1zm1.47 5.34c0.36 0.69-0.81 1.08-0.94 0.31-0.123-0.41-0.5379-0.6911-0.97-0.65-0.6279 0.0433-1.542 1-2.56 1-1.015 0-1.933-0.9568-2.56-1-0.432-0.04115-0.847 0.24-0.97 0.65-0.13 0.77-1.3 0.38-0.94-0.31 0.3299-1.066 1.277-1.408 2.03-1.34 1.115 0.09137 1.652 1 2.44 1 0.7875 0 1.325-0.9086 2.44-1 0.9056-0.08233 1.738 0.3972 2.03 1.34z"/>
</svg>

<svg xmlns="http://www.w3.org/2000/svg" width="16" height="16" version="1.1">
 <path style="fill:#ebdbb2" d="M 8,1 C 4.13,1 1,4.13 1,8 1,11.86 4.13,15 8,15 11.87,15 15,11.86 15,8 15,4.13 11.87,1 8,1 Z M 5,5 C 5.55,5 6,5.45 6,6 6,6.55 5.55,7 5,7 4.45,7 4,6.55 4,6 4,5.45 4.45,5 5,5 Z M 11,5 C 11.55,5 12,5.45 12,6 12,6.55 11.55,7 11,7 10.45,7 10,6.55 10,6 10,5.45 10.45,5 11,5 Z M 10.77,8.99 C 11.11,9.02 11.44,9.12 11.72,9.31 12.09,9.55 12.34,9.92 12.47,10.34 12.83,11.03 11.66,11.42 11.53,10.65 11.47,10.45 11.33,10.27 11.16,10.15 10.98,10.04 10.77,9.98 10.56,10 10.27,10.02 9.92,10.23 9.53,10.46 9.33,10.58 9.1,10.7 8.84,10.81 8.59,10.91 8.31,11 8,11 7.69,11 7.41,10.91 7.16,10.81 6.91,10.7 6.67,10.58 6.47,10.46 6.08,10.23 5.73,10.02 5.44,10 5.23,9.98 5.02,10.04 4.84,10.15 4.67,10.27 4.53,10.45 4.47,10.65 4.34,11.42 3.17,11.03 3.53,10.34 3.66,9.92 3.91,9.55 4.28,9.31 4.56,9.12 4.88,9.02 5.22,9 5.33,8.99 5.45,8.99 5.56,9 6.17,9.05 6.62,9.36 7,9.59 7.19,9.71 7.36,9.83 7.53,9.9 7.7,9.97 7.86,10 8,10 8.14,10 8.3,9.97 8.47,9.9 8.64,9.83 8.81,9.71 9,9.59 9.38,9.36 9.83,9.05 10.44,9 10.55,8.99 10.66,8.99 10.77,8.99 Z"/>
</svg>
